svgs/regular/ice-skate.svg

<svg xmlns="http://www.w3.org/2000/svg" viewBox="0 0 576 512"><!-- Font Awesome Pro 6.0.0-alpha2 by @fontawesome - https://fontawesome.com License - https://fontawesome.com/license (Commercial License) --><path d="M552 416H552C538.8 416 528 426.8 528 440V440C528 453.255 517.255 464 504 464H432V416H448C483.2 416 512 387.2 512 352V299C512 254.875 482 216.625 439.25 205.875L352 184V24C352 10.8 341.2 0 328 0H328C314.8 0 304 10.8 304 24V32H204.25C196.25 32 188.125 33.625 180.5 36.625L52.125 88C40 92.75 32 104.625 32 117.75V352C32 387.25 60.75 416 96 416V464H24C10.8 464 0 474.8 0 488V488C0 501.2 10.8 512 24 512H512C547.2 512 576 483.2 576 448V440C576 426.8 565.2 416 552 416ZM80 352V128.5L198.375 81.125C200.25 80.25 202.25 80 204.25 80H304V128H240C231.2 128 224 135.2 224 144V144C224 152.8 231.2 160 240 160H304V192H240C231.2 192 224 199.2 224 208V208C224 216.8 231.2 224 240 224H314.125L427.625 252.375C449 257.75 464 276.875 464 299V352C464 360.8 456.8 368 448 368H96C87.2 368 80 360.8 80 352ZM144 416H384V464H144V416Z"/></svg>

<svg xmlns="http://www.w3.org/2000/svg" viewBox="0 0 576 512"><!--! Font Awesome Pro 6.3.0 by @fontawesome - https://fontawesome.com License - https://fontawesome.com/license (Commercial License) Copyright 2023 Fonticons, Inc. --><path d="M552 416c-13.2 0-24 10.8-24 23.1C528 453.3 517.3 464 504 464h-71.1l0-48H448c35.2 0 64-28.8 64-64V299c0-44.12-30-82.38-72.75-93.12L352 184v-160C352 10.8 341.2 0 328 0S304 10.8 304 23.1V32H204.2c-8 0-16.12 1.625-23.75 4.625L52.12 88C40 92.75 32 104.6 32 117.8L32 352c0 35.25 28.75 64 64 64v48H23.1C10.8 464 0 474.8 0 487.1S10.8 512 23.1 512h488c35.2 0 64-28.8 64-64L576 439.1C576 426.8 565.2 416 552 416zM80 352V128.5l118.4-47.38C200.2 80.25 202.2 80 204.2 80H304v47.1L240 128C231.2 128 224 135.2 224 143.1C224 152.8 231.2 160 240 160h64v32h-64C231.2 192 224 199.2 224 207.1C224 216.8 231.2 224 240 224h74.13l113.5 28.38C449 257.8 464 276.9 464 299V352c0 8.8-7.2 16-16 16H96C87.2 368 80 360.8 80 352zM144 416h240l0 48h-240L144 416z"/></svg>
